exports/global-share-of-men-defined-as-underweight-healthy-overweight-and-obese_v1_850x600.svg

<svg xmlns="http://www.w3.org/2000/svg" version="1.1" style="background-color:#fff;-webkit-font-smoothing:antialiased" width="850" height="600" font-family="'Helvetica Neue',Helvetica,Arial,sans-serif" font-size="18" text-rendering="optimizeLegibility"><g class="ChartTab"><g class="HeaderView"><g opacity=".8" transform="matrix(.31 0 0 .31 770 15)"><a xmlns:xlink="http://www.w3.org/1999/xlink" xlink:href="https://ourworldindata.org" target="_blank"><g><path fill="#1B2543" d="M0 0h211.2v130.1H0z"/><path fill="#E63912" d="M0 112.2h211.2v17.9H0z"/><g><path fill="none" d="M1.2 12.3h210.2v99.2H1.2z"/><path fill="#FFF" d="M37.8 32.2c0 12.7-7.7 19.4-17.1 19.4-9.7 0-16.6-7.5-16.6-18.7 0-11.7 7.3-19.3 17.1-19.3 10.1.1 16.6 7.7 16.6 18.6zm-28.6.6c0 7.9 4.3 14.9 11.8 14.9 7.5 0 11.8-6.9 11.8-15.3 0-7.3-3.8-14.9-11.8-14.9-7.9 0-11.8 7.3-11.8 15.3zM62.7 43.8c0 2.7.1 5.1.2 7.2h-4.3l-.3-4.3h-.1c-1.3 2.1-4 4.9-8.8 4.9-4.2 0-9.1-2.3-9.1-11.6V24.6h4.8v14.6c0 5 1.5 8.4 5.9 8.4 3.2 0 5.5-2.2 6.3-4.4.3-.7.4-1.6.4-2.5V24.6h4.8v19.2zM67.3 32.8c0-3.1-.1-5.8-.2-8.2h4.2l.2 5.2h.2c1.2-3.5 4.1-5.8 7.3-5.8.5 0 .9.1 1.4.2v4.5c-.5-.1-1-.2-1.6-.2-3.4 0-5.8 2.6-6.5 6.2-.1.7-.2 1.4-.2 2.2V51h-4.8V32.8zM95.4 51L86 14.2h5l4.4 18.6c1.1 4.6 2.1 9.2 2.7 12.7h.1c.6-3.7 1.8-8 3-12.8l4.9-18.5h5l4.5 18.7c1 4.4 2 8.7 2.6 12.6h.1c.8-4 1.8-8.1 3-12.7l4.9-18.5h4.9L120.6 51h-5L111 31.9c-1.1-4.7-1.9-8.3-2.4-12h-.1c-.7 3.7-1.5 7.3-2.8 12L100.4 51h-5zM154.9 37.6c0 9.8-6.8 14-13.2 14-7.2 0-12.7-5.2-12.7-13.6 0-8.8 5.8-14 13.1-14 7.7 0 12.8 5.5 12.8 13.6zm-21 .3c0 5.8 3.3 10.1 8 10.1 4.6 0 8-4.3 8-10.3 0-4.5-2.2-10.1-7.9-10.1s-8.1 5.2-8.1 10.3zM158.2 32.8c0-3.1-.1-5.8-.2-8.2h4.2l.2 5.2h.2c1.2-3.5 4.1-5.8 7.3-5.8.5 0 .9.1 1.4.2v4.5c-.5-.1-1-.2-1.6-.2-3.4 0-5.8 2.6-6.5 6.2-.1.7-.2 1.4-.2 2.2V51h-4.8V32.8zM173.5 12.3h4.8V51h-4.8V12.3zM206.5 12.3v31.9c0 2.3.1 5 .2 6.8h-4.3l-.2-4.6h-.2c-1.5 2.9-4.7 5.2-9 5.2-6.4 0-11.3-5.4-11.3-13.4-.1-8.8 5.4-14.2 11.9-14.2 4 0 6.8 1.9 8 4h.1V12.3h4.8zm-4.8 23.1c0-.6-.1-1.4-.2-2a7 7 0 00-6.9-5.6c-5 0-7.9 4.4-7.9 10.2 0 5.3 2.6 9.8 7.8 9.8 3.2 0 6.2-2.1 7.1-5.7.2-.7.2-1.3.2-2.1v-4.6zM42.8 64c.1 1.6-1.1 2.9-3.1 2.9-1.7 0-2.9-1.3-2.9-2.9 0-1.7 1.3-3 3-3 1.9 0 3 1.3 3 3zm-5.4 33.8V71.4h4.8v26.4h-4.8zM47.5 78.6c0-2.7-.1-5-.2-7.1h4.3l.3 4.4h.1c1.3-2.5 4.4-5 8.8-5 3.7 0 9.4 2.2 9.4 11.2v15.8h-4.8V82.6c0-4.3-1.6-7.8-6.1-7.8-3.2 0-5.6 2.2-6.5 4.9-.2.6-.3 1.4-.3 2.2v15.9h-4.8V78.6zM84 61.6c2.9-.4 6.3-.8 10.1-.8 6.8 0 11.7 1.6 14.9 4.6 3.3 3 5.2 7.3 5.2 13.2 0 6-1.9 10.9-5.3 14.3-3.4 3.4-9.1 5.3-16.3 5.3-3.4 0-6.2-.2-8.6-.4V61.6zm4.8 32.5c1.2.2 3 .3 4.8.3 10.2 0 15.7-5.7 15.7-15.6.1-8.7-4.9-14.2-14.9-14.2-2.5 0-4.3.2-5.6.5v29zM132.1 97.8l-.4-3.3h-.2a9.79 9.79 0 01-8.1 3.9c-5.4 0-8.1-3.8-8.1-7.6 0-6.4 5.7-9.9 15.9-9.8v-.5c0-2.2-.6-6.1-6-6.1-2.5 0-5 .8-6.9 2l-1.1-3.2c2.2-1.4 5.4-2.3 8.7-2.3 8.1 0 10.1 5.5 10.1 10.8v9.9c0 2.3.1 4.5.4 6.3h-4.3zm-.7-13.4c-5.3-.1-11.2.8-11.2 5.9 0 3.1 2.1 4.6 4.5 4.6 3.4 0 5.6-2.2 6.4-4.4.2-.5.3-1 .3-1.5v-4.6zM146.6 63.9v7.6h6.9v3.7h-6.9v14.2c0 3.3.9 5.1 3.6 5.1 1.3 0 2.2-.2 2.8-.3l.2 3.6c-.9.4-2.4.7-4.3.7-2.2 0-4-.7-5.2-2-1.4-1.4-1.9-3.8-1.9-6.9V75.1h-4.1v-3.7h4.1v-6.3l4.8-1.2zM171.4 97.8l-.4-3.3h-.2a9.79 9.79 0 01-8.1 3.9c-5.4 0-8.1-3.8-8.1-7.6 0-6.4 5.7-9.9 15.9-9.8v-.5c0-2.2-.6-6.1-6-6.1-2.5 0-5 .8-6.9 2l-1.1-3.2c2.2-1.4 5.4-2.3 8.7-2.3 8.1 0 10.1 5.5 10.1 10.8v9.9c0 2.3.1 4.5.4 6.3h-4.3zm-.7-13.4c-5.3-.1-11.2.8-11.2 5.9 0 3.1 2.1 4.6 4.5 4.6 3.4 0 5.6-2.2 6.4-4.4.2-.5.3-1 .3-1.5v-4.6z"/></g></g></a></g><a href="https://ourworldindata.org/grapher/share-of-men-defined-as-underweight-healthy-overweight-and-obese" target="_blank"><text font-size="21.6" x="15" y="32.3" fill="#555"><tspan x="15" y="32.28">Share of men defined as underweight, healthy, overweight and obese, World</tspan></text></a><text font-size="14.4" x="15" y="50.1" fill="#666"><tspan x="15" y="50.12">Share of men (% of adult population), who are underweight, healthy/normal, overweight or obese based on body</tspan><tspan x="15" y="65.96">mass index (BMI). Body Mass Index (BMI) is a person&apos;s weight divided by his or her height. The WHO define a BMI</tspan><tspan x="15" y="81.8">30.0 as &apos;obese&apos;.</tspan></text></g><g class="StackedArea"><defs><clipPath id="a"><path d="M61.63 0h820v905h-820z"/></clipPath></defs><g class="AxisBoxView"><g class="HorizontalAxis" fill="#666" text-anchor="middle" font-size="16.2"><text x="61.6" y="556.5">1975</text><text x="146.7" y="556.5">1980</text><text x="231.8" y="556.5">1985</text><text x="316.8" y="556.5">1990</text><text x="401.9" y="556.5">1995</text><text x="487" y="556.5">2000</text><text x="572" y="556.5">2005</text><text x="657.1" y="556.5">2010</text><text x="725.1" y="556.5">2014</text></g><g class="VerticalAxis" fill="#666" dominant-baseline="middle" text-anchor="end" font-size="16.2"><text x="56.63" y="535.3">0%</text><text x="56.63" y="449">20%</text><text x="56.63" y="362.8">40%</text><text x="56.63" y="276.5">60%</text><text x="56.63" y="190.3">80%</text><text x="56.63" y="104">100%</text></g><g class="AxisGridLines"><path stroke="#ccc" d="M61.63 535.3h663.51"/><path stroke="#ddd" stroke-dasharray="3,2" d="M61.63 449h663.51M61.63 362.8h663.51M61.63 276.5h663.51M61.63 190.3h663.51M61.63 104h663.51"/></g><g class="AxisGridLines" stroke="#ddd" stroke-dasharray="3,2"><path d="M61.6 535.3V104M146.7 535.3V104M231.8 535.3V104M316.8 535.3V104M401.9 535.3V104M487 535.3V104M572 535.3V104M657.1 535.3V104"/></g></g><g clip-path="url(#a)"><g class="HeightedLegend clickable"><g class="legendMark"><path fill="#7ec7ce" d="M730.14 121.75h10v2.5h-10z"/><text font-size="14.4" x="745.1" y="127.3" fill="#333"><tspan x="745.14" y="127.32">Underweight</tspan></text></g><g class="legendMark"><path fill="#2a939b" d="M730.14 254.75h10v2.5h-10z"/><text font-size="14.4" x="745.1" y="260.3" fill="#333"><tspan x="745.14" y="260.32">Healthy</tspan></text></g><g class="legendMark"><path fill="#3360a9" d="M730.14 451.35h10v2.5h-10z"/><text font-size="14.4" x="745.1" y="449.2" fill="#333"><tspan x="745.14" y="449.17">Overweight or</tspan><tspan x="745.14" y="465.01">Obese</tspan></text></g></g><g class="Areas"><path d="M61.6 446l17-.9 17.1-1.2 17-1.4 17-1.3 17-1.2 17-1.3 17-1.3 17-1.4 17.1-1.6 17-1.3 17-1.3 17-1.7 17-1.4 17-1.5 17-1.5 17-1.7 17.1-1.3 17-1.3 17-1.7 17-1.7 17-1.6 17-1.9 17-2 17-2 17.1-2.3 17-2.3 17-2.3 17-2.4 17-2.6 17-2.6 17-2.9 17.1-2.7 17-3 17-3.1 17-3 17-2.7 17-2.9 17-3 17-2.8.04 165.4H61.64" fill="#3360a9" fill-opacity=".7" class="World_2-area"/><path d="M61.6 163.5l17-.4 17.1-.4 17-.4 17-.4 17-.1 17-.4 17-.5 17-.3 17.1-.5h17l17-.5 17-.4 17-.4 17-.1 17-.4 17-.4 17.1-.4 17-.5 17-.4 17-.4 17-.5 17-.8 17-.5 17-.8 17.1-.5 17-.8 17-.8 17-.9 17-.5 17-.8 17-.9 17.1-.8 17-.9 17-.9 17-.8 17-.8 17-.5 17-.9 17-.8v227.9l-17 2.8-17 3-17 2.9-17 2.7-17 3-17 3.1-17 3-17.1 2.7-17 2.9-17 2.6-17 2.6-17 2.4-17 2.3-17 2.3-17.1 2.3-17 2-17 2-17 1.9-17 1.6-17 1.7-17 1.7-17 1.3-17.1 1.3-17 1.7-17 1.5-17 1.5-17 1.4-17 1.7-17 1.3-17 1.3-17.1 1.6-17 1.4-17 1.3-17 1.3-17 1.2-17 1.3-17 1.4-17.1 1.2-17 .9" fill="#2a939b" fill-opacity=".7" class="World_1-area"/><path d="M61.6 104H725.1v38l-17 .8-17 .9-17 .5-17 .8-17 .8-17 .9-17 .9-17.1.8-17 .9-17 .8-17 .5-17 .9-17 .8-17 .8-17.1.5-17 .8-17 .5-17 .8-17 .5-17 .4-17 .4-17 .5-17.1.4-17 .4-17 .4-17 .1-17 .4-17 .4-17 .5h-17l-17.1.5-17 .3-17 .5-17 .4-17 .1-17 .4-17 .4-17.1.4-17 .4" fill="#7ec7ce" fill-opacity=".7" class="World_0-area"/><path stroke-linecap="round" d="M61.6 446l17-.9 17.1-1.2 17-1.4 17-1.3 17-1.2 17-1.3 17-1.3 17-1.4 17.1-1.6 17-1.3 17-1.3 17-1.7 17-1.4 17-1.5 17-1.5 17-1.7 17.1-1.3 17-1.3 17-1.7 17-1.7 17-1.6 17-1.9 17-2 17-2 17.1-2.3 17-2.3 17-2.3 17-2.4 17-2.6 17-2.6 17-2.9 17.1-2.7 17-3 17-3.1 17-3 17-2.7 17-2.9 17-3 17-2.8" stroke="#2B508D" stroke-opacity=".7" stroke-width=".5" fill="none" class="World_2-border"/><path stroke-linecap="round" d="M61.6 163.5l17-.4 17.1-.4 17-.4 17-.4 17-.1 17-.4 17-.5 17-.3 17.1-.5h17l17-.5 17-.4 17-.4 17-.1 17-.4 17-.4 17.1-.4 17-.5 17-.4 17-.4 17-.5 17-.8 17-.5 17-.8 17.1-.5 17-.8 17-.8 17-.9 17-.5 17-.8 17-.9 17.1-.8 17-.9 17-.9 17-.8 17-.8 17-.5 17-.9 17-.8" stroke="#237B82" stroke-opacity=".7" stroke-width=".5" fill="none" class="World_1-border"/><path stroke-linecap="round" d="M61.6 104H725.1" stroke="#69A6AC" stroke-opacity=".7" stroke-width=".5" fill="none" class="World_0-border"/></g></g></g><g class="SourcesFooter" fill="#777"><g class="clickable" fill="#777"><text font-size="12.6" x="15" y="581.6"><tspan x="15" y="581.58">Source: NCD RisC Database</tspan></text></g><text font-size="12.6" x="601.9" y="581.6"><tspan x="601.9" y="581.58"><a target="_blank" href="https://ourworldindata.org/obesity/" fill="#777">OurWorldInData.org/obesity/</a> • <a href="http://creativecommons.org/licenses/by-sa/4.0/deed.en_US" target="_blank" fill="#777">CC BY-SA</a></tspan></text></g></g></svg>

<svg xmlns="http://www.w3.org/2000/svg" version="1.1" style="font-family: 'Helvetica Neue', Helvetica, Arial, sans-serif; font-size: 18px; background-color: white; text-rendering: optimizeLegibility; -webkit-font-smoothing: antialiased;" width="850" height="600"><g class="ChartTab"><g class="HeaderView"><g opacity="0.8" transform="translate(770, 15) scale(0.31)"><a xmlns:xlink="http://www.w3.org/1999/xlink" xlink:href="https://ourworldindata.org" target="_blank"><g><rect x="0" y="0" fill="#1B2543" width="211.2" height="130.1"/><rect x="0" y="112.2" fill="#E63912" width="211.2" height="17.9"/><g><rect x="1.2" y="12.3" fill="none" width="210.2" height="99.2"/><path fill="#FFFFFF" d="M37.8,32.2c0,12.7-7.7,19.4-17.1,19.4c-9.7,0-16.6-7.5-16.6-18.7c0-11.7,7.3-19.3,17.1-19.3 C31.3,13.7,37.8,21.3,37.8,32.2z M9.2,32.8c0,7.9,4.3,14.9,11.8,14.9c7.5,0,11.8-6.9,11.8-15.3c0-7.3-3.8-14.9-11.8-14.9 C13.1,17.5,9.2,24.8,9.2,32.8z"/><path fill="#FFFFFF" d="M62.7,43.8c0,2.7,0.1,5.1,0.2,7.2h-4.3l-0.3-4.3h-0.1c-1.3,2.1-4,4.9-8.8,4.9c-4.2,0-9.1-2.3-9.1-11.6 V24.6h4.8v14.6c0,5,1.5,8.4,5.9,8.4c3.2,0,5.5-2.2,6.3-4.4c0.3-0.7,0.4-1.6,0.4-2.5V24.6h4.8V43.8z"/><path fill="#FFFFFF" d="M67.3,32.8c0-3.1-0.1-5.8-0.2-8.2h4.2l0.2,5.2h0.2c1.2-3.5,4.1-5.8,7.3-5.8c0.5,0,0.9,0.1,1.4,0.2v4.5 c-0.5-0.1-1-0.2-1.6-0.2c-3.4,0-5.8,2.6-6.5,6.2c-0.1,0.7-0.2,1.4-0.2,2.2V51h-4.8V32.8z"/><path fill="#FFFFFF" d="M95.4,51l-9.4-36.8h5l4.4,18.6c1.1,4.6,2.1,9.2,2.7,12.7h0.1c0.6-3.7,1.8-8,3-12.8l4.9-18.5h5l4.5,18.7 c1,4.4,2,8.7,2.6,12.6h0.1c0.8-4,1.8-8.1,3-12.7l4.9-18.5h4.9L120.6,51h-5L111,31.9c-1.1-4.7-1.9-8.3-2.4-12h-0.1 c-0.7,3.7-1.5,7.3-2.8,12L100.4,51H95.4z"/><path fill="#FFFFFF" d="M154.9,37.6c0,9.8-6.8,14-13.2,14c-7.2,0-12.7-5.2-12.7-13.6c0-8.8,5.8-14,13.1-14 C149.8,24,154.9,29.5,154.9,37.6z M133.9,37.9c0,5.8,3.3,10.1,8,10.1c4.6,0,8-4.3,8-10.3c0-4.5-2.2-10.1-7.9-10.1 C136.3,27.6,133.9,32.8,133.9,37.9z"/><path fill="#FFFFFF" d="M158.2,32.8c0-3.1-0.1-5.8-0.2-8.2h4.2l0.2,5.2h0.2c1.2-3.5,4.1-5.8,7.3-5.8c0.5,0,0.9,0.1,1.4,0.2v4.5 c-0.5-0.1-1-0.2-1.6-0.2c-3.4,0-5.8,2.6-6.5,6.2c-0.1,0.7-0.2,1.4-0.2,2.2V51h-4.8V32.8z"/><path fill="#FFFFFF" d="M173.5,12.3h4.8V51h-4.8V12.3z"/><path fill="#FFFFFF" d="M206.5,12.3v31.9c0,2.3,0.1,5,0.2,6.8h-4.3l-0.2-4.6H202c-1.5,2.9-4.7,5.2-9,5.2 c-6.4,0-11.3-5.4-11.3-13.4c-0.1-8.8,5.4-14.2,11.9-14.2c4,0,6.8,1.9,8,4h0.1V12.3H206.5z M201.7,35.4c0-0.6-0.1-1.4-0.2-2 c-0.7-3.1-3.3-5.6-6.9-5.6c-5,0-7.9,4.4-7.9,10.2c0,5.3,2.6,9.8,7.8,9.8c3.2,0,6.2-2.1,7.1-5.7c0.2-0.7,0.2-1.3,0.2-2.1V35.4z"/><path fill="#FFFFFF" d="M42.8,64c0.1,1.6-1.1,2.9-3.1,2.9c-1.7,0-2.9-1.3-2.9-2.9c0-1.7,1.3-3,3-3C41.7,61,42.8,62.3,42.8,64z M37.4,97.8V71.4h4.8v26.4H37.4z"/><path fill="#FFFFFF" d="M47.5,78.6c0-2.7-0.1-5-0.2-7.1h4.3l0.3,4.4h0.1c1.3-2.5,4.4-5,8.8-5c3.7,0,9.4,2.2,9.4,11.2v15.8h-4.8 V82.6c0-4.3-1.6-7.8-6.1-7.8c-3.2,0-5.6,2.2-6.5,4.9c-0.2,0.6-0.3,1.4-0.3,2.2v15.9h-4.8V78.6z"/><path fill="#FFFFFF" d="M84,61.6c2.9-0.4,6.3-0.8,10.1-0.8c6.8,0,11.7,1.6,14.9,4.6c3.3,3,5.2,7.3,5.2,13.2c0,6-1.9,10.9-5.3,14.3 c-3.4,3.4-9.1,5.3-16.3,5.3c-3.4,0-6.2-0.2-8.6-0.4V61.6z M88.8,94.1c1.2,0.2,3,0.3,4.8,0.3c10.2,0,15.7-5.7,15.7-15.6 c0.1-8.7-4.9-14.2-14.9-14.2c-2.5,0-4.3,0.2-5.6,0.5V94.1z"/><path fill="#FFFFFF" d="M132.1,97.8l-0.4-3.3h-0.2c-1.5,2.1-4.3,3.9-8.1,3.9c-5.4,0-8.1-3.8-8.1-7.6c0-6.4,5.7-9.9,15.9-9.8v-0.5 c0-2.2-0.6-6.1-6-6.1c-2.5,0-5,0.8-6.9,2l-1.1-3.2c2.2-1.4,5.4-2.3,8.7-2.3c8.1,0,10.1,5.5,10.1,10.8v9.9c0,2.3,0.1,4.5,0.4,6.3 H132.1z M131.4,84.4c-5.3-0.1-11.2,0.8-11.2,5.9c0,3.1,2.1,4.6,4.5,4.6c3.4,0,5.6-2.2,6.4-4.4c0.2-0.5,0.3-1,0.3-1.5V84.4z"/><path fill="#FFFFFF" d="M146.6,63.9v7.6h6.9v3.7h-6.9v14.2c0,3.3,0.9,5.1,3.6,5.1c1.3,0,2.2-0.2,2.8-0.3l0.2,3.6 c-0.9,0.4-2.4,0.7-4.3,0.7c-2.2,0-4-0.7-5.2-2c-1.4-1.4-1.9-3.8-1.9-6.9V75.1h-4.1v-3.7h4.1v-6.3L146.6,63.9z"/><path fill="#FFFFFF" d="M171.4,97.8l-0.4-3.3h-0.2c-1.5,2.1-4.3,3.9-8.1,3.9c-5.4,0-8.1-3.8-8.1-7.6c0-6.4,5.7-9.9,15.9-9.8v-0.5 c0-2.2-0.6-6.1-6-6.1c-2.5,0-5,0.8-6.9,2l-1.1-3.2c2.2-1.4,5.4-2.3,8.7-2.3c8.1,0,10.1,5.5,10.1,10.8v9.9c0,2.3,0.1,4.5,0.4,6.3 H171.4z M170.7,84.4c-5.3-0.1-11.2,0.8-11.2,5.9c0,3.1,2.1,4.6,4.5,4.6c3.4,0,5.6-2.2,6.4-4.4c0.2-0.5,0.3-1,0.3-1.5V84.4z"/></g></g></a></g><a href="https://ourworldindata.org/grapher/share-of-men-defined-as-underweight-healthy-overweight-and-obese" target="_blank"><text font-size="21.60" x="15.0" y="32.3" fill="#555"><tspan x="15" y="32.279999999999994">Share of men defined as underweight, healthy, overweight and obese, World</tspan></text></a><text font-size="14.40" x="15.0" y="50.1" fill="#666"><tspan x="15" y="50.11999999999999">Share of men (% of adult population), who are underweight, healthy/normal, overweight or obese based on body</tspan><tspan x="15" y="65.96">mass index (BMI). Body Mass Index (BMI) is a person's weight divided by his or her height. The WHO define a BMI</tspan><tspan x="15" y="81.8">30.0 as 'obese'.</tspan></text></g><g class="StackedArea"><defs><clipPath id="boundsClip-598"><rect x="61.634" y="0" width="820" height="905"></rect></clipPath></defs><g class="AxisBoxView"><g class="HorizontalAxis"><text x="61.6" y="556.5" fill="#666" text-anchor="middle" font-size="16.2">1975</text><text x="146.7" y="556.5" fill="#666" text-anchor="middle" font-size="16.2">1980</text><text x="231.8" y="556.5" fill="#666" text-anchor="middle" font-size="16.2">1985</text><text x="316.8" y="556.5" fill="#666" text-anchor="middle" font-size="16.2">1990</text><text x="401.9" y="556.5" fill="#666" text-anchor="middle" font-size="16.2">1995</text><text x="487" y="556.5" fill="#666" text-anchor="middle" font-size="16.2">2000</text><text x="572" y="556.5" fill="#666" text-anchor="middle" font-size="16.2">2005</text><text x="657.1" y="556.5" fill="#666" text-anchor="middle" font-size="16.2">2010</text><text x="725.1" y="556.5" fill="#666" text-anchor="middle" font-size="16.2">2014</text></g><g class="VerticalAxis"><text x="56.63" y="535.3" fill="#666" dominant-baseline="middle" text-anchor="end" font-size="16.2">0%</text><text x="56.63" y="449" fill="#666" dominant-baseline="middle" text-anchor="end" font-size="16.2">20%</text><text x="56.63" y="362.8" fill="#666" dominant-baseline="middle" text-anchor="end" font-size="16.2">40%</text><text x="56.63" y="276.5" fill="#666" dominant-baseline="middle" text-anchor="end" font-size="16.2">60%</text><text x="56.63" y="190.3" fill="#666" dominant-baseline="middle" text-anchor="end" font-size="16.2">80%</text><text x="56.63" y="104" fill="#666" dominant-baseline="middle" text-anchor="end" font-size="16.2">100%</text></g><g class="AxisGridLines"><line x1="61.63" y1="535.3" x2="725.14" y2="535.3" stroke="#ccc"></line><line x1="61.63" y1="449" x2="725.14" y2="449" stroke="#ddd" stroke-dasharray="3,2"></line><line x1="61.63" y1="362.8" x2="725.14" y2="362.8" stroke="#ddd" stroke-dasharray="3,2"></line><line x1="61.63" y1="276.5" x2="725.14" y2="276.5" stroke="#ddd" stroke-dasharray="3,2"></line><line x1="61.63" y1="190.3" x2="725.14" y2="190.3" stroke="#ddd" stroke-dasharray="3,2"></line><line x1="61.63" y1="104" x2="725.14" y2="104" stroke="#ddd" stroke-dasharray="3,2"></line></g><g class="AxisGridLines"><line x1="61.6" y1="535.30" x2="61.6" y2="104.00" stroke="#ddd" stroke-dasharray="3,2"></line><line x1="146.7" y1="535.30" x2="146.7" y2="104.00" stroke="#ddd" stroke-dasharray="3,2"></line><line x1="231.8" y1="535.30" x2="231.8" y2="104.00" stroke="#ddd" stroke-dasharray="3,2"></line><line x1="316.8" y1="535.30" x2="316.8" y2="104.00" stroke="#ddd" stroke-dasharray="3,2"></line><line x1="401.9" y1="535.30" x2="401.9" y2="104.00" stroke="#ddd" stroke-dasharray="3,2"></line><line x1="487" y1="535.30" x2="487" y2="104.00" stroke="#ddd" stroke-dasharray="3,2"></line><line x1="572" y1="535.30" x2="572" y2="104.00" stroke="#ddd" stroke-dasharray="3,2"></line><line x1="657.1" y1="535.30" x2="657.1" y2="104.00" stroke="#ddd" stroke-dasharray="3,2"></line></g></g><g clip-path="url(#boundsClip-598)"><g class="HeightedLegend clickable"><g class="legendMark"><rect x="730.144" y="115.8" width="96.072" height="14.4" fill="#fff" opacity="0"></rect><rect x="730.144" y="121.75" width="10" height="2.5" fill="#7ec7ce"></rect><text font-size="14.40" x="745.1" y="127.3" fill="#333"><tspan x="745.144" y="127.32">Underweight</tspan></text></g><g class="legendMark"><rect x="730.144" y="248.8" width="63.96000000000001" height="14.4" fill="#fff" opacity="0"></rect><rect x="730.144" y="254.75" width="10" height="2.5" fill="#2a939b"></rect><text font-size="14.40" x="745.1" y="260.3" fill="#333"><tspan x="745.144" y="260.32">Healthy</tspan></text></g><g class="legendMark"><rect x="730.144" y="437.65000000000003" width="104.85600000000001" height="29.900000000000002" fill="#fff" opacity="0"></rect><rect x="730.144" y="451.35" width="10" height="2.5" fill="#3360a9"></rect><text font-size="14.40" x="745.1" y="449.2" fill="#333"><tspan x="745.144" y="449.17">Overweight or</tspan><tspan x="745.144" y="465.01">Obese</tspan></text></g></g><g class="Areas"><rect x="61.634" y="104" width="663.51" height="431.29999999999995" opacity="0" fill="rgba(255,255,255,0)"></rect><path stroke-linecap="round" d="M61.6 446L78.6 445.1L95.7 443.9L112.7 442.5L129.7 441.2L146.7 440L163.7 438.7L180.7 437.4L197.7 436L214.8 434.4L231.8 433.1L248.8 431.8L265.8 430.1L282.8 428.7L299.8 427.2L316.8 425.7L333.8 424L350.9 422.7L367.9 421.4L384.9 419.7L401.9 418L418.9 416.4L435.9 414.5L452.9 412.5L469.9 410.5L487 408.2L504 405.9L521 403.6L538 401.2L555 398.6L572 396L589 393.1L606.1 390.4L623.1 387.4L640.1 384.3L657.1 381.3L674.1 378.6L691.1 375.7L708.1 372.7L725.1 369.9L725.144 535.3L61.634 535.3" fill="#3360a9" fill-opacity="0.7" class="World_2-area"></path><path stroke-linecap="round" d="M61.6 163.5L78.6 163.1L95.7 162.7L112.7 162.3L129.7 161.9L146.7 161.8L163.7 161.4L180.7 160.9L197.7 160.6L214.8 160.1L231.8 160.1L248.8 159.6L265.8 159.2L282.8 158.8L299.8 158.7L316.8 158.3L333.8 157.9L350.9 157.5L367.9 157L384.9 156.6L401.9 156.2L418.9 155.7L435.9 154.9L452.9 154.4L469.9 153.6L487 153.1L504 152.3L521 151.5L538 150.6L555 150.1L572 149.3L589 148.4L606.1 147.6L623.1 146.7L640.1 145.8L657.1 145L674.1 144.2L691.1 143.7L708.1 142.8L725.1 142L725.1 369.9L708.1 372.7L691.1 375.7L674.1 378.6L657.1 381.3L640.1 384.3L623.1 387.4L606.1 390.4L589 393.1L572 396L555 398.6L538 401.2L521 403.6L504 405.9L487 408.2L469.9 410.5L452.9 412.5L435.9 414.5L418.9 416.4L401.9 418L384.9 419.7L367.9 421.4L350.9 422.7L333.8 424L316.8 425.7L299.8 427.2L282.8 428.7L265.8 430.1L248.8 431.8L231.8 433.1L214.8 434.4L197.7 436L180.7 437.4L163.7 438.7L146.7 440L129.7 441.2L112.7 442.5L95.7 443.9L78.6 445.1L61.6 446" fill="#2a939b" fill-opacity="0.7" class="World_1-area"></path><path stroke-linecap="round" d="M61.6 104L78.6 104L95.7 104L112.7 104L129.7 104L146.7 104L163.7 104L180.7 104L197.7 104L214.8 104L231.8 104L248.8 104L265.8 104L282.8 104L299.8 104L316.8 104L333.8 104L350.9 104L367.9 104L384.9 104L401.9 104L418.9 104L435.9 104L452.9 104L469.9 104L487 104L504 104L521 104L538 104L555 104L572 104L589 104L606.1 104L623.1 104L640.1 104L657.1 104L674.1 104L691.1 104L708.1 104L725.1 104L725.1 142L708.1 142.8L691.1 143.7L674.1 144.2L657.1 145L640.1 145.8L623.1 146.7L606.1 147.6L589 148.4L572 149.3L555 150.1L538 150.6L521 151.5L504 152.3L487 153.1L469.9 153.6L452.9 154.4L435.9 154.9L418.9 155.7L401.9 156.2L384.9 156.6L367.9 157L350.9 157.5L333.8 157.9L316.8 158.3L299.8 158.7L282.8 158.8L265.8 159.2L248.8 159.6L231.8 160.1L214.8 160.1L197.7 160.6L180.7 160.9L163.7 161.4L146.7 161.8L129.7 161.9L112.7 162.3L95.7 162.7L78.6 163.1L61.6 163.5" fill="#7ec7ce" fill-opacity="0.7" class="World_0-area"></path><path stroke-linecap="round" d="M61.6 446L78.6 445.1L95.7 443.9L112.7 442.5L129.7 441.2L146.7 440L163.7 438.7L180.7 437.4L197.7 436L214.8 434.4L231.8 433.1L248.8 431.8L265.8 430.1L282.8 428.7L299.8 427.2L316.8 425.7L333.8 424L350.9 422.7L367.9 421.4L384.9 419.7L401.9 418L418.9 416.4L435.9 414.5L452.9 412.5L469.9 410.5L487 408.2L504 405.9L521 403.6L538 401.2L555 398.6L572 396L589 393.1L606.1 390.4L623.1 387.4L640.1 384.3L657.1 381.3L674.1 378.6L691.1 375.7L708.1 372.7L725.1 369.9" stroke="rgb(43, 80, 141)" stroke-opacity="0.7" stroke-width="0.5" fill="none" class="World_2-border"></path><path stroke-linecap="round" d="M61.6 163.5L78.6 163.1L95.7 162.7L112.7 162.3L129.7 161.9L146.7 161.8L163.7 161.4L180.7 160.9L197.7 160.6L214.8 160.1L231.8 160.1L248.8 159.6L265.8 159.2L282.8 158.8L299.8 158.7L316.8 158.3L333.8 157.9L350.9 157.5L367.9 157L384.9 156.6L401.9 156.2L418.9 155.7L435.9 154.9L452.9 154.4L469.9 153.6L487 153.1L504 152.3L521 151.5L538 150.6L555 150.1L572 149.3L589 148.4L606.1 147.6L623.1 146.7L640.1 145.8L657.1 145L674.1 144.2L691.1 143.7L708.1 142.8L725.1 142" stroke="rgb(35, 123, 130)" stroke-opacity="0.7" stroke-width="0.5" fill="none" class="World_1-border"></path><path stroke-linecap="round" d="M61.6 104L78.6 104L95.7 104L112.7 104L129.7 104L146.7 104L163.7 104L180.7 104L197.7 104L214.8 104L231.8 104L248.8 104L265.8 104L282.8 104L299.8 104L316.8 104L333.8 104L350.9 104L367.9 104L384.9 104L401.9 104L418.9 104L435.9 104L452.9 104L469.9 104L487 104L504 104L521 104L538 104L555 104L572 104L589 104L606.1 104L623.1 104L640.1 104L657.1 104L674.1 104L691.1 104L708.1 104L725.1 104" stroke="rgb(105, 166, 172)" stroke-opacity="0.7" stroke-width="0.5" fill="none" class="World_0-border"></path></g></g></g><g style="fill: #777;" class="SourcesFooter"><g style="fill: #777;" class="clickable"><text font-size="12.60" x="15.0" y="581.6"><tspan x="15" y="581.58">Source: NCD RisC Database</tspan></text></g><text font-size="12.60" x="601.9" y="581.6"><tspan x="601.9" y="581.58"><a target='_blank' style='fill: #777;' href='https://ourworldindata.org/obesity/'>OurWorldInData.org/obesity/</a> • <a style="fill: #777;" href="http://creativecommons.org/licenses/by-sa/4.0/deed.en_US" target="_blank">CC BY-SA</a></tspan></text></g></g></svg>
